X:109
T:Reel,A. RH.109
T:Down The Bank,aka. RH.109
R:Reel
S:Rev.R.Harrison’s MS,c1815,Cumbria
N:A bit like “Down The Bank..Vickers.502″
O:England
A:Temple Sowerby,Cumbria
Z:vmp.Simon Wilson. Review PJH, 2008.
M:C
L:1/8
Q:2/4=100
K:D
|:B|\
A2FD G2GB|A2FD F2FB|A2FD G2GB|AF dFD3:|
|:A|defd gfef|defd edcA|defd gfeg|faef d3:|

